X: 20371
T: O WHERE WILL BONNY ANN LY
Q: "Allegretto"
%R: trathspey, march
B: "Edinburgh Repository of Music" v.2 p.37 #1
F: http://digital.nls.uk/special-collections-of-printed-music/pageturner.cfm?id=87776133
Z: 2015 John Chambers <jc:trillian.mit.edu>
M: C
L: 1/16
K: G
(BA) |\
G2{f}g2{f}g3e (de).d.c {c}B4 | A2{e}=f2{e}f3d (cd).c._B {B}A4 |\
G2{f}g2{f}g2(fe) (de).d.c B3d | (cB).A.G (FG).A.c B2G2G2 :|
|: (Bc) |\
(dc).B.A (GA).B.c d2d2 B4 | (c_B).A.G (=FG).A.B c2c2 A4 |\
(dc).B.A (GA).B.c d2d2B2d2 | (cB).A.G (FG).A.c B2G2G2 (Bc) |
(dc).B.A (GA).B.c d2d2B2 | (c_B).A.G (=FG).A.B c2c2 A4 |\
(dc).B.A (GA)Bc d2g2b3d' | (c'b).a.g (fg).a.c' b2g2g2 |]

%%sep 2 1 500
%%sep 1 1 500

